X: 1
T: Rare
C: Keith Murphy
R: reel
Z: 2010 John Chambers <jc:trillian.mit.edu>
B: Portland Collection v.2
M: C|
L: 1/8
K: D
A,B,C |:\
"D"D2FD "(A)"EDEF | "D"ABAF EDB,D | "G"G,2G,A, B,DED |\
[1,3 "A7"A,G,A,B, CDEC :|[2,4 "A7"CDEC "D"D :|
|: EFA |\
"D"(ef)fe dcBA | "G"B2BA "(Em)"GFED | "A7"E2CE A,ECE | A,B,CD EFGE |
 "D"D2fe   dcBA | "G"B2BA "(Em)"GFED | "A7"E2CE A,ECE | CDEC "D"D :|
